static/logos/fathom-glyph-color-1.svg

<svg width="100" height="25" viewBox="0 0 100 25" fill="none" xmlns="http://www.w3.org/2000/svg">
<g clip-path="url(#clip0_1_2816)">
<path d="M5.98 8.1255V7.1575C5.98 6.8988 5.8772 6.65065 5.6943 6.4677C5.51135 6.2848 5.2632 6.182 5.0045 6.182H3.1375V5.285C3.1345 4.235 3.3715 3.609 3.5845 3.3805L3.5945 3.368C3.73984 3.2248 3.92242 3.12519 4.1215 3.0805C4.81056 2.96962 5.5076 2.9156 6.2055 2.919H6.564C6.69215 2.91906 6.81905 2.89388 6.93745 2.84489C7.05585 2.7959 7.16345 2.72405 7.2541 2.63346C7.34475 2.54287 7.41665 2.43531 7.4657 2.31693C7.51475 2.19854 7.54 2.07165 7.54 1.9435V1.0695C7.5405 0.84296 7.46195 0.623335 7.31795 0.448469C7.17395 0.2736 6.97345 0.154434 6.751 0.1115C6.633 0.0885 6.501 0.0655 6.3545 0.043C6.1705 0.0145 5.204 0 5.014 0H5.0005C3.43 0 2.092 0.367 1.196 1.328C0.319 2.294 0.0045 3.6575 0 5.315V23.5795C0 23.8382 0.102776 24.0864 0.285717 24.2693C0.468659 24.4523 0.71678 24.555 0.9755 24.555H2.162C2.29014 24.5552 2.41705 24.53 2.53547 24.481C2.65388 24.4321 2.76147 24.3602 2.85208 24.2696C2.94269 24.1789 3.01453 24.0714 3.06351 23.9529C3.11249 23.8345 3.13763 23.7077 3.1375 23.5795V9.1H5.0035C5.13165 9.10025 5.2586 9.07525 5.37705 9.0264C5.4955 8.97755 5.60315 8.9058 5.69385 8.8153C5.78455 8.72475 5.85655 8.61725 5.90565 8.4989C5.95475 8.3805 5.98 8.25365 5.98 8.1255Z" fill="#272827"/>
<path d="M89.7374 24.1905C89.8244 24.2849 89.9299 24.3605 90.0469 24.4126C90.1644 24.4647 90.2909 24.4922 90.4194 24.4935H91.6259C91.8284 24.4935 92.0254 24.4306 92.1904 24.3134C92.3554 24.1962 92.4799 24.0306 92.5464 23.8396L99.9464 2.60902C99.9979 2.462 100.013 2.30481 99.9914 2.15059C99.9699 1.99637 99.9114 1.84961 99.8214 1.72258C99.7309 1.59555 99.6119 1.49195 99.4734 1.42043C99.3349 1.34892 99.1814 1.31157 99.0259 1.31152H97.8399C97.6374 1.31123 97.4394 1.37412 97.2744 1.49143C97.1094 1.60875 96.9849 1.77464 96.9184 1.96602L89.5184 23.1966C89.4804 23.2973 89.4609 23.4039 89.4609 23.5115C89.4634 23.7646 89.5624 24.0073 89.7369 24.1905" fill="#7476EB"/>
<path d="M66.0536 24.4923H67.2086C67.3366 24.4924 67.4636 24.4673 67.5821 24.4183C67.7006 24.3693 67.8081 24.2975 67.8986 24.2069C67.9896 24.1163 68.0611 24.0087 68.1101 23.8903C68.1591 23.7718 68.1841 23.6449 68.1841 23.5168V13.5573C68.1891 12.985 68.2841 12.4171 68.4651 11.8743C68.6496 11.3028 68.9271 10.7657 69.2866 10.2848C69.6181 9.83296 70.0391 9.45426 70.5231 9.17226C70.9981 8.90656 71.5356 8.77391 72.0796 8.78826C72.6736 8.75076 73.2631 8.90771 73.7596 9.23526C74.1996 9.57396 74.5301 10.0349 74.7096 10.5603C74.9616 11.2718 75.0831 12.0227 75.0691 12.7773V23.5168C75.0691 23.7755 75.1721 24.0236 75.3551 24.2066C75.5376 24.3895 75.7861 24.4923 76.0446 24.4923H77.1996C77.3276 24.4924 77.4546 24.4672 77.5731 24.4182C77.6911 24.3692 77.7991 24.2973 77.8896 24.2067C77.9801 24.1161 78.0516 24.0085 78.1006 23.8901C78.1496 23.7718 78.1746 23.6449 78.1746 23.5168V13.5573C78.1796 12.9851 78.2741 12.4172 78.4551 11.8743C78.6391 11.3025 78.9166 10.7652 79.2761 10.2843C79.6076 9.83251 80.0291 9.45386 80.5131 9.17176C80.9881 8.90616 81.5256 8.77346 82.0696 8.78776C82.6631 8.75026 83.2526 8.90716 83.7491 9.23476C84.1896 9.57301 84.5201 10.0338 84.6991 10.5593C84.9511 11.271 85.0726 12.0221 85.0586 12.7768V23.5168C85.0586 23.7755 85.1616 24.0236 85.3446 24.2066C85.5271 24.3895 85.7756 24.4923 86.0341 24.4923H87.1891C87.3171 24.4924 87.4441 24.4673 87.5626 24.4183C87.6811 24.3693 87.7886 24.2975 87.8791 24.2069C87.9701 24.1163 88.0416 24.0087 88.0906 23.8903C88.1396 23.7718 88.1646 23.6449 88.1646 23.5168V12.4953C88.1936 11.3109 87.9806 10.133 87.5386 9.03376C87.1281 8.04886 86.4246 7.21411 85.5231 6.64276C84.5591 6.06696 83.4511 5.77706 82.3286 5.80676H82.3091C81.1121 5.79631 79.9376 6.13066 78.9256 6.76976C78.2591 7.19896 77.6776 7.74771 77.2106 8.38826C76.8051 7.68396 76.2376 7.08671 75.5546 6.64626C74.6061 6.06926 73.5111 5.77781 72.4011 5.80676H72.3786C71.1926 5.79996 70.0296 6.13441 69.0286 6.77026C68.7281 6.96536 68.4461 7.18691 68.1851 7.43226V7.08226C68.1821 6.82791 68.0796 6.58476 67.9001 6.40451C67.7206 6.22426 67.4781 6.12106 67.2236 6.11676H66.0536C65.7951 6.11676 65.5466 6.21956 65.3641 6.40251C65.1811 6.58541 65.0781 6.83356 65.0781 7.09226V23.5168C65.0781 23.7755 65.1811 24.0236 65.3641 24.2066C65.5466 24.3895 65.7951 24.4923 66.0536 24.4923Z" fill="#272827"/>
<path d="M50.662 23.6257C51.973 24.4151 53.482 24.8141 55.012 24.7757H55.0305C56.531 24.8088 58.0115 24.4245 59.3065 23.6657C60.567 22.8813 61.556 21.7282 62.139 20.3627C62.8005 18.7702 63.124 17.0577 63.089 15.3337C63.1225 13.6245 62.8065 11.9264 62.1605 10.3437C61.5885 8.97075 60.619 7.80024 59.3765 6.98269C58.073 6.17989 56.564 5.77354 55.0335 5.81319H55.0135C53.5055 5.78144 52.0185 6.1716 50.7205 6.9397C49.4585 7.72425 48.4693 8.8791 47.888 10.2467C47.2262 11.86 46.9094 13.594 46.958 15.3372C46.9213 17.0246 47.2299 18.7018 47.865 20.2657C48.4282 21.6475 49.4052 22.8212 50.662 23.6257ZM51.412 10.3547C51.805 9.84969 52.316 9.44884 52.9 9.18719C53.571 8.90964 54.292 8.77344 55.018 8.78719C55.727 8.77379 56.4305 8.91189 57.0815 9.19219C57.668 9.46659 58.18 9.8782 58.5735 10.3922C59.426 11.4837 59.9105 13.0852 59.9115 15.3017V15.3047C59.9115 17.5887 59.4275 19.2107 58.6055 20.2577C58.2175 20.7613 57.7105 21.1612 57.1305 21.4217C56.4615 21.6992 55.7425 21.8354 55.0185 21.8217C54.337 21.862 53.6555 21.7364 53.033 21.4557C52.4105 21.1751 51.8655 20.7477 51.4445 20.2102C50.5815 19.1157 50.0945 17.5282 50.0945 15.3352V15.3322C50.0945 13.0287 50.5835 11.3987 51.4135 10.3542" fill="#272827"/>
<path d="M30.378 1.038V23.517C30.3779 23.6452 30.403 23.772 30.452 23.8904C30.5009 24.0089 30.5728 24.1164 30.6635 24.2071C30.7541 24.2977 30.8616 24.3696 30.98 24.4185C31.0984 24.4675 31.2254 24.4927 31.3535 24.4925H32.5235C32.7767 24.4879 33.0184 24.3853 33.1976 24.2063C33.3768 24.0273 33.4797 23.7857 33.4845 23.5325V13.5575C33.4903 12.9919 33.5929 12.4315 33.788 11.9005C33.9928 11.3256 34.2964 10.7907 34.685 10.32C35.0666 9.85275 35.5411 9.47 36.0785 9.196C36.6474 8.914 37.2762 8.77435 37.911 8.789C38.6244 8.74975 39.334 8.9173 39.9545 9.2715C40.4444 9.58865 40.8232 10.0508 41.038 10.5935C41.3127 11.2884 41.4463 12.0309 41.431 12.778V23.518C41.431 23.7767 41.5338 24.0248 41.7167 24.2078C41.8997 24.3907 42.1478 24.4935 42.4065 24.4935H43.6065C43.86 24.4891 44.102 24.3865 44.2814 24.2073C44.4607 24.028 44.5635 23.786 44.568 23.5325V12.496C44.5995 11.2866 44.3513 10.0863 43.843 8.9885C43.364 7.9982 42.5986 7.1746 41.646 6.6245C40.5987 6.0543 39.419 5.77205 38.227 5.8065H38.2125C36.9484 5.79425 35.7049 6.12775 34.6165 6.771C34.211 7.01215 33.8316 7.29485 33.4845 7.6145V1.038C33.4845 0.909855 33.4592 0.782965 33.4102 0.664575C33.3611 0.54619 33.2893 0.438631 33.1986 0.348041C33.108 0.257451 33.0004 0.185606 32.882 0.136612C32.7636 0.0876181 32.6366 0.0624346 32.5085 0.0625001H31.338C31.0841 0.0669906 30.8418 0.169823 30.6622 0.349349C30.4826 0.528875 30.3796 0.77109 30.375 1.025L30.378 1.038Z" fill="#272827"/>
<path d="M22.3203 3.28605V19.3006C22.3233 20.9406 22.6433 22.3006 23.5098 23.2651C24.4098 24.2421 25.7598 24.6151 27.3508 24.6151C27.5378 24.6151 27.7212 24.6092 27.9008 24.5976C28.135 24.5852 28.3659 24.5366 28.5853 24.4536C28.7669 24.3822 28.923 24.258 29.0334 24.097C29.1437 23.9361 29.2032 23.7457 29.2043 23.5506V22.6746C29.2039 22.4161 29.101 22.1684 28.9181 21.9858C28.7352 21.8031 28.4873 21.7006 28.2288 21.7006H27.7708C27.3235 21.7107 26.877 21.656 26.4453 21.5381C26.2459 21.4942 26.0627 21.3955 25.9163 21.2531L25.9053 21.2396C25.6913 21.0106 25.4553 20.3826 25.4553 19.3346V9.03805H27.4918C27.7453 9.03355 27.9871 8.93085 28.1664 8.7516C28.3456 8.57235 28.4483 8.3305 28.4528 8.07705V7.09505C28.4528 6.83635 28.35 6.5882 28.1671 6.40525C27.9842 6.2223 27.736 6.11955 27.4773 6.11955H25.4578V3.28605C25.4578 3.02733 25.355 2.77921 25.1721 2.59627C24.9892 2.41332 24.741 2.31055 24.4823 2.31055H23.2823C23.0285 2.31505 22.7863 2.41791 22.6069 2.59746C22.4274 2.77702 22.3247 3.01923 22.3203 3.27305V3.28605Z" fill="#272827"/>
<path d="M5.66661 19.2405V19.252C5.64436 20.3078 5.93281 21.3468 6.49611 22.24C7.06041 23.0967 7.86701 23.766 8.81311 24.1625C9.86706 24.5923 10.9982 24.8004 12.1361 24.774C13.0116 24.7638 13.8786 24.6017 14.6986 24.295C15.6209 23.9557 16.4742 23.4522 17.2171 22.809C17.3636 22.684 17.5016 22.5505 17.6361 22.4135C17.723 22.9827 17.9161 23.5305 18.2051 24.0285C18.292 24.171 18.4141 24.2886 18.5598 24.37C18.7055 24.4514 18.8698 24.4938 19.0366 24.493L19.6076 24.4865C19.8644 24.4836 20.1097 24.3796 20.2903 24.1969C20.4709 24.0143 20.5721 23.7678 20.5721 23.511V13.061C20.6005 11.7794 20.3591 10.5063 19.8636 9.32403C19.3882 8.22923 18.5772 7.31383 17.5476 6.71003C16.3881 6.07538 15.0792 5.76453 13.7581 5.81003C12.456 5.77728 11.1633 6.03988 9.97711 6.57803C8.91371 7.07983 8.01896 7.87973 7.40161 8.88053L7.39711 8.88753C7.31446 9.02088 7.27066 9.17463 7.27061 9.33153C7.27176 9.51588 7.33011 9.69533 7.43756 9.84518C7.54506 9.99498 7.69636 10.1078 7.87061 10.168L8.82811 10.5085C8.97386 10.5603 9.12741 10.5867 9.28211 10.5865C9.48571 10.5861 9.68671 10.5404 9.87046 10.4527C10.0543 10.365 10.2162 10.2375 10.3446 10.0795C10.4351 9.96878 10.5316 9.86313 10.6336 9.76303C11.2601 9.15503 12.1896 8.79653 13.6336 8.79103C14.2561 8.77628 14.8762 8.87293 15.4646 9.07653C15.8862 9.22833 16.2592 9.49063 16.5446 9.83603C17.0866 10.501 17.4276 11.529 17.4596 13.002C16.0656 13.024 14.8291 13.082 13.7596 13.182C12.4167 13.3018 11.0923 13.5775 9.81311 14.0035H9.80861L9.79711 14.007C8.62706 14.3261 7.57456 14.9776 6.76711 15.8825C6.01526 16.829 5.62526 18.0124 5.66711 19.2205L5.66661 19.2405ZM16.7566 19.078C16.2884 19.8946 15.6269 20.5838 14.8301 21.085C14.0537 21.5787 13.1502 21.8354 12.2301 21.8235C11.3006 21.8894 10.3776 21.6262 9.62261 21.08C9.36061 20.8677 9.15176 20.5972 9.01261 20.29C8.86831 19.9368 8.79741 19.558 8.80411 19.1765C8.79711 18.728 8.90946 18.2858 9.12961 17.895C9.42361 17.4622 9.84081 17.1276 10.3271 16.9345C11.2937 16.5286 12.3133 16.2631 13.3551 16.146C14.7192 15.9664 16.0929 15.8699 17.4686 15.857V16.4605C17.4718 17.381 17.226 18.2853 16.7571 19.0775" fill="#272827"/>
</g>
<defs>
<clipPath id="clip0_1_2816">
<rect width="100" height="25" fill="white"/>
</clipPath>
</defs>
</svg>

<svg xmlns="http://www.w3.org/2000/svg" width="256" height="64" fill="none" viewBox="0 0 100 25"><g clip-path="url(#a)"><path fill="#272827" d="M5.98 8.126v-.968a.976.976 0 0 0-.976-.976H3.139v-.897c-.003-1.05.234-1.676.446-1.905l.01-.012c.146-.143.328-.243.528-.288.689-.11 1.386-.164 2.083-.161h.359a.976.976 0 0 0 .976-.976V1.07a.974.974 0 0 0-.789-.958c-.118-.023-.25-.045-.397-.068C6.17.015 5.204 0 5.014 0H5C3.43 0 2.092.367 1.196 1.328.319 2.294.004 3.658 0 5.315v18.264a.976.976 0 0 0 .976.976h1.186a.973.973 0 0 0 .976-.976V9.1h1.865a.975.975 0 0 0 .977-.974Z"/><path fill="#7476EB" d="M89.737 24.19a.943.943 0 0 0 .682.303h1.207a.974.974 0 0 0 .92-.653l7.4-21.231a.977.977 0 0 0-.92-1.297H97.84a.974.974 0 0 0-.922.654l-7.4 21.23a.892.892 0 0 0-.057.316 1 1 0 0 0 .276.678"/><path fill="#272827" d="M66.054 24.492h1.155a.976.976 0 0 0 .975-.975v-9.96c.005-.572.1-1.14.281-1.683a5.452 5.452 0 0 1 .822-1.59c.331-.451.752-.83 1.236-1.112a3.024 3.024 0 0 1 1.557-.384 2.737 2.737 0 0 1 1.68.447c.44.339.77.8.95 1.325a6.29 6.29 0 0 1 .36 2.217v10.74a.976.976 0 0 0 .975.975H77.2a.976.976 0 0 0 .975-.975v-9.96c.005-.572.1-1.14.28-1.683.184-.572.462-1.109.821-1.59.332-.451.753-.83 1.237-1.112a3.026 3.026 0 0 1 1.557-.384 2.736 2.736 0 0 1 1.68.447c.44.338.77.799.95 1.324.251.712.373 1.463.359 2.218v10.74a.976.976 0 0 0 .975.975h1.155a.976.976 0 0 0 .976-.975V12.495a8.707 8.707 0 0 0-.626-3.461 5.198 5.198 0 0 0-2.016-2.391 5.924 5.924 0 0 0-3.194-.836h-.02a6.235 6.235 0 0 0-3.383.963 6.432 6.432 0 0 0-1.715 1.618 5.1 5.1 0 0 0-1.656-1.742 5.778 5.778 0 0 0-3.154-.84h-.022a6.182 6.182 0 0 0-3.35.964c-.3.195-.583.417-.844.662v-.35a.977.977 0 0 0-.961-.965h-1.17a.974.974 0 0 0-.976.975v16.425a.976.976 0 0 0 .976.975ZM50.662 23.626a8.042 8.042 0 0 0 4.35 1.15h.019a8.105 8.105 0 0 0 4.276-1.11 7.238 7.238 0 0 0 2.832-3.303c.661-1.593.985-3.305.95-5.03a12.554 12.554 0 0 0-.928-4.99 7.455 7.455 0 0 0-2.785-3.36 7.892 7.892 0 0 0-4.343-1.17h-.02a8.095 8.095 0 0 0-4.292 1.127 7.22 7.22 0 0 0-2.833 3.307 12.495 12.495 0 0 0-.93 5.09 12.383 12.383 0 0 0 .907 4.929 7.23 7.23 0 0 0 2.797 3.36Zm.75-13.271A3.912 3.912 0 0 1 52.9 9.187a5.28 5.28 0 0 1 2.118-.4 4.98 4.98 0 0 1 2.063.405 4.03 4.03 0 0 1 1.492 1.2c.853 1.092 1.337 2.693 1.338 4.91v.003c0 2.284-.483 3.906-1.306 4.953a3.857 3.857 0 0 1-1.474 1.164 5.253 5.253 0 0 1-2.112.4 4.224 4.224 0 0 1-3.575-1.612c-.863-1.094-1.35-2.682-1.35-4.875v-.003c0-2.303.49-3.933 1.32-4.978M30.378 1.038v22.479a.974.974 0 0 0 .976.976h1.17a.98.98 0 0 0 .96-.96v-9.976a4.952 4.952 0 0 1 .304-1.657 5.25 5.25 0 0 1 .897-1.58 4.35 4.35 0 0 1 1.393-1.124 3.922 3.922 0 0 1 1.833-.407 3.71 3.71 0 0 1 2.044.482c.49.318.868.78 1.083 1.322.275.695.408 1.438.393 2.185v10.74a.976.976 0 0 0 .976.976h1.2a.98.98 0 0 0 .961-.962V12.496a7.86 7.86 0 0 0-.725-3.508 5.49 5.49 0 0 0-2.197-2.363 6.743 6.743 0 0 0-3.419-.819h-.014a6.936 6.936 0 0 0-3.596.965 6.808 6.808 0 0 0-1.133.843V1.038a.977.977 0 0 0-.976-.975h-1.17a.98.98 0 0 0-.963.962l.003.013ZM22.32 3.286v16.015c.003 1.64.323 3 1.19 3.964.9.977 2.25 1.35 3.84 1.35.188 0 .371-.006.55-.017.235-.013.466-.061.685-.144a.977.977 0 0 0 .62-.903v-.876a.975.975 0 0 0-.976-.974h-.458a4.634 4.634 0 0 1-1.326-.163 1.097 1.097 0 0 1-.529-.285l-.01-.013c-.215-.23-.45-.857-.45-1.905V9.038h2.036a.979.979 0 0 0 .96-.961v-.982a.976.976 0 0 0-.975-.975h-2.02V3.286a.976.976 0 0 0-.975-.975h-1.2a.98.98 0 0 0-.962.962v.013ZM5.667 19.24v.012a5.389 5.389 0 0 0 .83 2.988 5.165 5.165 0 0 0 2.316 1.923 8.29 8.29 0 0 0 3.323.611 7.566 7.566 0 0 0 2.563-.479 8.143 8.143 0 0 0 2.518-1.486c.147-.125.285-.259.42-.396.086.57.28 1.117.568 1.616a.969.969 0 0 0 .832.464l.57-.006a.975.975 0 0 0 .965-.976v-10.45a9.144 9.144 0 0 0-.708-3.737 5.63 5.63 0 0 0-2.316-2.614 7.364 7.364 0 0 0-3.79-.9 8.627 8.627 0 0 0-3.78.768 6.07 6.07 0 0 0-2.576 2.303l-.005.007a.843.843 0 0 0-.126.444.891.891 0 0 0 .6.836l.957.34a1.35 1.35 0 0 0 1.042-.055c.184-.088.346-.215.475-.373.09-.111.187-.217.289-.317.626-.608 1.556-.966 3-.972a5.221 5.221 0 0 1 1.83.286 2.5 2.5 0 0 1 1.08.759c.543.665.884 1.693.916 3.166-1.394.022-2.63.08-3.7.18-1.343.12-2.668.396-3.947.822H9.81l-.012.003c-1.17.32-2.222.97-3.03 1.876a5.084 5.084 0 0 0-1.1 3.338v.02Zm11.09-.162a5.75 5.75 0 0 1-1.927 2.007c-.776.494-1.68.75-2.6.738a3.97 3.97 0 0 1-2.607-.743 2.168 2.168 0 0 1-.61-.79 2.813 2.813 0 0 1-.209-1.113 2.53 2.53 0 0 1 .326-1.282 2.614 2.614 0 0 1 1.197-.96 10.992 10.992 0 0 1 3.028-.789 33.951 33.951 0 0 1 4.114-.289v.604a5.103 5.103 0 0 1-.712 2.617"/></g><defs><clipPath id="a"><path fill="#fff" d="M0 0h100v25H0z"/></clipPath></defs></svg>
